X: 895
T: Görmek İster Daima
C: Garbis Efendi
O: Turkey
F: http://compmusic.upf.edu/node/140
N: nisaburek--sarki--senginsemai--gormek_ister--garbis_efendi
N: makam= nisaburek
N: form= sarki
N: usul= senginsemai = 6/4
M: 6/4
L: 1/16
K: C ^9/8f ^3/4c ^3/4g 
Q: 1/4=69
%%MIDI tuningsystem comma53
A4 c4 e4 d3c B4 z4  | f3e e2d2 c2d2 edcB c4 z4  | \
w:  ARANAĞME  |   | 
E4 A4 c4 B3A G2F2 E4  | 
w:   | 
A4 e3d c3B BcBA A4 z4  | A4 c4 e4 d3c B4 z4  | \
w:   |  ARANAĞME  | 
f3e e2d2 c2d2 edcB c4 z4  | 
w:   | 
E4 A4 c4 B3A G2F2 E4  | A4 e3d c3B BcBA A4 z4  | \
w:   |   | 
A4 e4 ^3/4d2e2 f2e2 e2=d2 c2B2  | 
w:  Gör mek  is *  ter  *  da  | 
c3d e3d c3B BcBA A4 z4  | A3B c2d2 e2f2 g2a2 =gfed cBc2  | 
w:  i *  ma  *  her  *  yer *  *  *  de   |  çeş   | 
d4 e4 d2e2 f2fe e4 z4  | A3B c2d2 e2de f=gfe e4 z4  | 
w:  çeş mâ nım  *  se *  *  ni    |  SAZ  | 
e4 fef2 d4 f4 a2=g2 f2e2  | d3e f2fe e3d ed^c^3/4B c4 z4  | 
w:  Söy le  *  *  müm kün  mü   |  u *  nut *  *  mak  *  söy *  *  *  le   | 
d6dc c3B B3A G3F E4  | A4 e3d c3B B3/2c/BA A4 z4  | 
w:  câ   |  câ nâ *  nım  *  se *  *  *  ni    | 
A3B c2d2 e2de f3/2=g/fe e4 z4  | e4 fef2 d4 f4 a2=g2 f2e2  | 
w:  SAZ  |  Söy le  *  *  müm kün  mü   | 
d3e f2fe e3d ed^c^3/4B c4 z4  | d6dc c3B B3A G3F E4  | 
w:  u *  nut *  *  mak  *  söy *  *  *  le   |  câ   | 
A4 e3d c3B B3/2c/BA A4 z4  | A3B c2d2 e2=f2 {g}fee^3/4d e4 z4  | 
w:  câ nâ *  nım  *  se *  *  *  ni    |  SAZ  | 
e4 =f4 e4 ^d4 e3d =c4  | B4 =c3B A2B2 cdcB B4 z4  | \
w:  Öz lü yor  rû hum   |  ha ya *  tım  *  sev *  *  *  di  | 
G3F E2F2 G2A2 B2c2 d3f e4  | 
w:  ğim   | 
d3c c3B B3A A=gfe e4 z4  | A3B c2d2 e2de f=gfe e4 z4  | 
w:  câ *  nâ *  nım  *  se *  *  *  ni    |  SAZ  | 
e4 fef2 d4 f4 a2=g2 f2e2  | d3e f2fe e3d ed^c^3/4B c4 z4  | 
w:  Söy le  *  *  müm kün  mü   |  u *  nut *  *  mak  *  söy *  *  *  le   | 
d6dc c3B B3A G3F E4  | A4 e3d c3B B3/2c/BA A4 z4  | 
w:  câ   |  câ nâ *  nım  *  se *  *  *  ni    | 
|


